src/pos-icons/folder-open-outline.svg

<svg height="24" viewBox="0 0 24 24" width="24" xmlns="http://www.w3.org/2000/svg"><path d="m6.1 10-2.1 8v-10h17a2 2 0 0 0 -2-2h-7l-2-2h-6a2 2 0 0 0 -2 2v12a2 2 0 0 0 2 2h15c.9 0 1.7-.6 1.9-1.5l2.3-8.5zm12.9 8h-13l1.6-6h13z"/></svg>

<?xml version="1.0" encoding="UTF-8"?><!DOCTYPE svg PUBLIC "-//W3C//DTD SVG 1.1//EN" "http://www.w3.org/Graphics/SVG/1.1/DTD/svg11.dtd"><svg xmlns="http://www.w3.org/2000/svg" xmlns:xlink="http://www.w3.org/1999/xlink" version="1.1" id="mdi-folder-open-outline" width="24" height="24" viewBox="0 0 24 24"><path d="M6.1,10L4,18V8H21A2,2 0 0,0 19,6H12L10,4H4A2,2 0 0,0 2,6V18A2,2 0 0,0 4,20H19C19.9,20 20.7,19.4 20.9,18.5L23.2,10H6.1M19,18H6L7.6,12H20.6L19,18Z" /></svg>
